packages/core/src/svgs/tokens/branded/BRICK.svg

<svg width="24" height="24" viewBox="0 0 24 24" fill="none" xmlns="http://www.w3.org/2000/svg">
<path d="M11.5003 2.00625H12.1563C15.2491 3.13091 18.3418 4.25555 21.4097 5.39895C21.6909 5.49892 21.8845 5.74884 21.997 6.14872V12.4968L12.5 22H11.8314L2.57175 18.6136C2.32182 18.5262 2.13438 18.27 2.00317 17.8576V11.5221L11.5003 2V2.00625Z" fill="black"/>
<path d="M20.7473 6.41111L12.2187 15.0021C12.1002 14.9924 11.9815 14.9861 11.8625 14.9835C11.7376 14.9835 11.6252 14.9584 11.5189 14.9209C8.9446 14.0077 6.37658 13.0767 3.81509 12.1281C3.56516 12.0343 3.45894 11.8594 3.47769 11.6158L11.8376 3.26833C11.8625 3.24334 11.9 3.22459 11.9376 3.2121C11.9748 3.203 12.014 3.20517 12.05 3.21835L20.7473 6.40486V6.41111Z" fill="#D36853"/>
<path d="M14.049 8.8416C12.7869 7.97313 12.6371 6.50482 12.4871 6.05497C13.3711 5.77619 14.3255 5.82046 15.1799 6.17992C16.1921 6.58606 16.4671 7.58574 15.5861 8.31051C15.1487 8.6729 14.6427 8.84784 14.049 8.8416Z" fill="#8E3216"/>
<path d="M12.481 6.05496C12.7863 7.05726 13.4636 7.90462 14.3742 8.42298C14.4026 8.43944 14.4264 8.46312 14.4429 8.49164C14.4593 8.52015 14.4679 8.5525 14.4679 8.58544C14.4675 8.61669 14.4593 8.64737 14.444 8.67464C14.4287 8.70194 14.4069 8.72496 14.3805 8.74164C14.2805 8.80412 14.1742 8.83535 14.0555 8.8416C13.0246 8.95406 10.719 8.30427 11.4813 6.8797C11.6563 6.54232 11.9936 6.27364 12.481 6.05496Z" fill="#681C0A"/>
<path d="M20.747 6.3924V11.7719C20.747 11.9594 20.7658 12.1344 20.6346 12.2593L11.9997 20.7693V15.0022L20.747 6.3924ZM11.0626 12.1906C9.93783 11.422 9.23805 10.5287 8.95068 9.51645C9.77076 9.21073 10.6771 9.23303 11.4811 9.57884C12.5808 10.0476 12.9807 11.1159 11.8061 11.8845C11.4562 12.1094 11.2062 12.2156 11.0689 12.1969L11.0626 12.1906Z" fill="#8E3216"/>
<path d="M8.95051 9.51648C9.23788 10.5287 9.94393 11.4221 11.0687 12.1969C10.0439 12.4468 9.15667 12.3343 8.40069 11.8594C7.22606 11.1285 7.81962 9.89757 8.95051 9.51648Z" fill="#681C0A"/>
<path d="M3.4836 11.6158C3.46487 11.8657 3.57733 12.0343 3.821 12.1281C5.41426 12.7217 7.97597 13.6526 11.5186 14.9147C11.6249 14.9584 11.7373 14.9772 11.8622 14.9772H11.9997V20.7692C9.16936 19.7257 6.16402 18.6699 3.37114 17.6763C3.20869 17.6139 3.25243 17.5014 3.25243 17.3327V11.9969C3.25243 11.8594 3.26492 11.7345 3.4836 11.6158Z" fill="#AA472D"/>
</svg>

<svg xmlns="http://www.w3.org/2000/svg" width="24" height="24" fill="none" viewBox="0 0 24 24">
    <path fill="#000" d="M11.5 2.006h.656c3.093 1.125 6.186 2.25 9.254 3.393q.419.15.587.75v6.348L12.5 22h-.669l-9.26-3.386c-.25-.088-.437-.344-.568-.756v-6.336L11.5 2z"/>
    <path fill="#D36853" d="m20.747 6.411-8.528 8.591a6 6 0 0 0-.356-.019 1 1 0 0 1-.344-.062 595 595 0 0 1-7.704-2.793c-.25-.094-.356-.269-.337-.512l8.36-8.348a.3.3 0 0 1 .1-.056.2.2 0 0 1 .112.006l8.697 3.187z"/>
    <path fill="#8E3216" d="M14.049 8.842c-1.262-.869-1.412-2.337-1.562-2.787a3.9 3.9 0 0 1 2.693.125c1.012.406 1.287 1.406.406 2.13a2.28 2.28 0 0 1-1.537.532"/>
    <path fill="#681C0A" d="M12.481 6.055a4.1 4.1 0 0 0 1.893 2.368.19.19 0 0 1 .094.162.19.19 0 0 1-.088.157.66.66 0 0 1-.325.1c-1.03.112-3.336-.538-2.574-1.962.175-.338.513-.606 1-.825"/>
    <path fill="#8E3216" d="M20.747 6.392v5.38c0 .187.019.362-.112.487L12 20.77v-5.767zm-9.684 5.799c-1.125-.769-1.825-1.662-2.112-2.675a3.4 3.4 0 0 1 2.53.063c1.1.469 1.5 1.537.325 2.305-.35.225-.6.332-.737.313z"/>
    <path fill="#681C0A" d="M8.95 9.516q.432 1.52 2.119 2.68-1.536.375-2.668-.337c-1.175-.73-.581-1.961.55-2.343"/>
    <path fill="#AA472D" d="M3.484 11.616c-.02.25.093.418.337.512 1.593.594 4.155 1.525 7.698 2.787a.9.9 0 0 0 .343.062H12v5.792c-2.83-1.043-5.836-2.1-8.629-3.093-.162-.062-.119-.175-.119-.343v-5.336c0-.138.013-.262.232-.381"/>
</svg>
